assets/svg/icon_privacy_private.svg

<svg width="24" height="24" viewBox="0 0 24 24" fill="none" xmlns="http://www.w3.org/2000/svg">
<path d="M15.2294 14.2103C14.4437 14.6994 13.7006 15.4563 13 16.481C14.3429 18.4446 15.8429 19.4264 17.5 19.4264C18.2535 19.4264 18.9744 19.2235 19.6626 18.8175M17.5 13.5355C19.1571 13.5355 20.6571 14.5174 22 16.481C21.7543 16.84 21.5034 17.1662 21.2472 17.4597M14.0588 13L20.9412 20" stroke="#0166FF" stroke-width="1.2" stroke-linecap="round" stroke-linejoin="round"/>
<path fill-rule="evenodd" clip-rule="evenodd" d="M6.14844 6.13248C6.14844 4.00551 7.87269 2.28125 9.99965 2.28125C12.1267 2.28125 13.8509 4.00551 13.8509 6.13248C13.8509 8.25946 12.1267 9.98372 9.99965 9.98372C7.87269 9.98372 6.14844 8.25946 6.14844 6.13248ZM9.99965 3.49743C8.54437 3.49743 7.36462 4.67718 7.36462 6.13248C7.36462 7.58779 8.54437 8.76754 9.99965 8.76754C11.455 8.76754 12.6347 7.58779 12.6347 6.13248C12.6347 4.67718 11.455 3.49743 9.99965 3.49743Z" fill="#0166FF"/>
<path d="M5.11611 12.3503C6.39673 11.63 8.12494 11.2036 10.0007 11.2036C10.3487 11.2036 10.6917 11.2183 11.0277 11.2468C11.3829 11.2769 11.618 11.6188 11.5399 11.9666C11.4706 12.2754 11.1771 12.4783 10.8616 12.4534C10.5811 12.4313 10.2937 12.4198 10.0007 12.4198C8.29425 12.4198 6.77932 12.8102 5.71236 13.4103C4.62634 14.0212 4.12253 14.77 4.12253 15.4602C4.12253 16.5206 4.15522 17.1175 4.70921 17.5686C5.00963 17.8133 5.51184 18.0521 6.37149 18.2261C7.22844 18.3995 8.40005 18.5007 10.0007 18.5007C10.0159 18.5007 10.031 18.5007 10.0461 18.5007C10.3864 18.5002 10.6657 18.7739 10.6657 19.1142C10.6657 19.4455 10.4004 19.7162 10.0691 19.7168C10.0464 19.7168 10.0236 19.7169 10.0007 19.7169C8.35827 19.7169 7.09753 19.6138 6.13021 19.4181C5.16559 19.2228 4.45162 18.9272 3.94126 18.5116C2.90424 17.6672 2.90539 16.4849 2.90631 15.5429L2.90635 15.4602C2.90635 14.1355 3.85456 13.06 5.11611 12.3503Z" fill="#0166FF"/>
</svg>

<svg xmlns="http://www.w3.org/2000/svg" width="24" height="24" fill="none"><path stroke="#0166FF" stroke-linecap="round" stroke-linejoin="round" stroke-width="1.2" d="M15.23 14.21q-1.18.734-2.23 2.271 2.014 2.945 4.5 2.945 1.13 0 2.163-.608M17.5 13.534q2.486 0 4.5 2.946-.369.538-.753.979M14.06 13l6.882 7"/><path fill="#0166FF" fill-rule="evenodd" d="M6.148 6.132a3.851 3.851 0 1 1 7.703 0 3.851 3.851 0 0 1-7.703 0M10 3.497a2.635 2.635 0 1 0 0 5.27 2.635 2.635 0 0 0 0-5.27" clip-rule="evenodd"/><path fill="#0166FF" d="M5.116 12.35c1.28-.72 3.009-1.146 4.885-1.146q.522 0 1.027.043c.355.03.59.372.512.72a.64.64 0 0 1-.678.486q-.42-.033-.861-.033c-1.707 0-3.222.39-4.289.99-1.086.611-1.59 1.36-1.59 2.05 0 1.06.033 1.657.587 2.109.3.244.803.483 1.662.657.857.174 2.029.275 3.63.275h.045c.34 0 .62.273.62.613a.6.6 0 0 1-.597.603h-.068c-1.643 0-2.903-.103-3.87-.299-.965-.195-1.68-.49-2.19-.906-1.037-.845-1.036-2.027-1.035-2.97v-.082c0-1.325.949-2.4 2.21-3.11"/></svg>
